X:4704
L:1/8
M:4/4
K:G
 D |: B4 cA Fc | dg Be d2 cA | BD GB d2 cB | AE A>G FD GA | B4 dg fe | eA ce d2 Bc | d>d ed cD BA | 
 G2 G>G G2 :|[K:D] FG |: A2 d>e fagf | ec A>B A2 fg | a2 a>g fA d>e | fd gf e2 d>e | 
 fA (3AGF G2 F>G | AB (3=cBA G2 F>G | Ad fa gA fe | d2 d>d d2 :|[K:A] cB |: A2 EA F2 A>F | 
 EA ce a2 f>g | ae ed cA dc | BF B>A GE FG | A2 EA F2 A>F | E>F EA c3 e | f>g af ef cB | 
 A2 A>A A2 :|

